X:125
T:Auld Lang Syne
M:C
L:1/4
K:G
D | G>F GB | A>G A(B/A/) | G>G Bd | e3 e | 
d>B BG | A>G A(B/A/) | G>E ED | G2- G e | 
(d>B) (BG) | A>G Ae | (d>B) (Bd) | e3 e | 
d>B BG | A>G A(B/A/) | (G>E) (ED) | G2- G || 

